X: 872
T: Gönlümün Ezhar İçinde...
C: Fehmi Tokay
O: Turkey
F: http://compmusic.upf.edu/node/140
N: rast--sarki--devrihindi--gonlumun_ezhar--fehmi_tokay
N: makam= rast
N: form= sarki
N: usul= devrihindi = 7/4
M: 7/4
L: 1/16
K: C _1/4B ^f  
Q: 1/4=84
%%MIDI tuningsystem comma53
B8 B2A2 A2G2 F2E2 D4 z4  | c8 c2d2 c2B2 ^A2c2 B4 z4  | \
w:  ARANAĞME  |   | 
d4 d2g2 =f2e2 d2c2 B2A2 G2A2 B2A2  | 
w:   | 
G4 F2E2 D4 B4 A2G2 G8  | B8 B2A2 A2G2 F2E2 D4 z4  | \
w:   |  ARANAĞME  | 
c8 c2d2 c2B2 ^A2c2 B4 z4  | 
w:   | 
d4 d2g2 =f2e2 d2c2 B2A2 G2A2 B2A2  | \
w:   | 
G4 F2E2 D4 B4 A2G2 G8  | 
w:   | 
B8 B2A2 A6G2 G2A2 B4  | c4 c2d2 c2B2 B2A2 A2G2 G4 z4  | \
w:  Gön lü *  mün  *  ez  |  har_ *  *  i *  çin *  *  *  de   | 
c6d2 d4 d2c4d2 c2B^A B4  | 
w:  gül  *  gi bi  *  *  dil  | 
d2_7/8e2 f2e2 e2d2 d6c2 B2A2 G4  | \
w:  da *  *  *  rı  *  var   SAZ  | 
B8 B2A2 A6G2 G2A2 B4  | c4 c2d2 c2B2 B2A2 A2G2 G4 z4  | 
w:  Gön lü *  mün  *  ez  |  har_ *  *  i *  çin *  *  *  de   | 
c6d2 d4 d2c4d2 c2B^A B4  | d2_7/8e2 f2e2 e2d2 d6c2 B2c2 d4  | 
w:  gül  *  gi bi  *  *  dil  |  da *  *  *  rı  *  var   SAZ  | 
d8 e2f2 g2gf g2e2 d2ed d4  | d2c2 e2c2 c2B2 B2A2 A2G2 G4 z4  | 
w:  Ney le *  yim  *  *  *  *  her   |  sev *  *  *  gi *  sin *  *  *  de   | 
c8 c2B2 B2A2 A2G2 F3E D4  | G2A2 B2A2 A2G2 G6c2 B2c2 d4  | 
w:  bir  yı *  ğın  *  *  *  ağ  |  ya *  *  *  rı  *  var   SAZ  | 
d8 e2f2 g2gf g2e2 d2ed d4  | d2c2 e2c2 c2B2 B2A2 A2G2 G4 z4  | 
w:  Ney le *  yim  *  *  *  *  her   |  sev *  *  *  gi *  sin *  *  *  de   | 
c8 c2B2 B2A2 A2G2 F3E D4  | G2A2 B2A2 A2G2 G6c2 B2c2 d4  | 
w:  bir  yı *  ğın  *  *  *  ağ  |  ya *  *  *  rı  *  var   SAZ  | 
c8 d4 (3d2c2d2 e3d d4 z4  | d2g2 =f2e2 e2d2 d2c4d2 c2B^A B4  | 
w:  Gül  se ven *  *  *  *  ler   |  kat *  *  *  la *  nır  *  *  ha  | 
c8 d4 d6_7/8e2 d2cB c4  | d2_7/8e2 f2e2 e2d2 d6c2 B2c2 d4  | \
w:  rın  dil_ a *  zar   |  cev *  *  *  ri *  ne   SAZ  | 
d8 e2f2 g2gf g2e2 d2ed d4  | 
w:  Ney le *  yim  *  *  *  *  her   | 
d2c2 e2c2 c2B2 B2A2 A2G2 G4 z4  | \
w:  sev *  *  *  gi *  sin *  *  *  de   | 
c8 c2B2 B2A2 A2G2 F3E D4  | 
w:  bir  yı *  ğın  *  *  *  ağ  | 
G2A2 B2A2 A2G2 G6c2 B2c2 d4  | d8 e2f2 g2gf g2e2 d2ed d4  | 
w:  ya *  *  *  rı  *  var   SAZ  |  Ney le *  yim  *  *  *  *  her   | 
d2c2 e2c2 c2B2 B2A2 A2G2 G4 z4  | \
w:  sev *  *  *  gi *  sin *  *  *  de   | 
c8 c2B2 B2A2 A2G2 F3E D4  | 
w:  bir  yı *  ğın  *  *  *  ağ  | 
G2A2 B2A2 A2G2 G6|
w:  ya *  *  *  rı  *  var    | 


